X: 166
P: Longways for as many as will
M: 6/4
L: 1/4
K: Bb
f |\
f>gf g2a | bd2- d2d | e>fe dec | g3- g2f |\
(ef)d (cd)B | ABG F2a | (g/a/)bG A2B | B3- B2 |]

